X:1
T:One Look at the Cross
T:One Look at the Cross
T:William Wesley Rhoads
T:William Wesley Rhoads, 1882
T:Public Domain Courtesy of the Cyber Hymnal™
T:Public Domain Courtesy of the Cyber Hymnal™
C:William Wesley Rhoads
Z:Public Domain
Z:Courtesy of the Cyber Hymnal™
%%score ( 1 2 ) 3
L:1/8
Q:1/4=86
M:6/8
K:D
V:1 treble 
V:2 treble 
V:3 bass 
V:1
 [FA] | [FA][^E^G][FA] [DF]2 [DF] | [DF][DG][DF] D2 [FA] | [FA][GB][Gc] [Fd]2 [Fd] | %4
w: 1.~One|look at the cross on|Cal- va- ry’s mount, Where|Christ the Re- dee- mer|
w: 2.~One|look at the cross suf-|fi- cient will be To|save thee from sin, and|
w: 3.~Then|look at the cross, O|bur- dened of soul! Where|flow- eth the blood and|
 [Gd][Gc][GB] [FA]2 [FA] | [FA][GB][Gc] [Fd]2 [Fd] | [Gd][Gc][GB] [FA]2 [FA] | %7
w: suf- fered and died, Will|sa- tis- fy all who|look and a- bide— Our|
w: set thy soul free; The|pro- mise is: “Look, and|on- ly be- lieve, And|
w: mak- eth thee whole; That|one look of faith to|Cal- va- ry’s brow, Will|
 [GB][DA][EG] [DF]2 [CE] | !fermata!D2 ||"^Refrain" AA[^GB] [=Gc] | [Fd]6- | %11
w: Je- sus was cru- ci-|fied.|||
w: mer- cy thou shalt re-|ceive.”|One look at the|cross|
w: bring thee sal- va- tion|now.|||
 [Fd]2 [Fd] [Bd][Ac][GB] | [FA]6- | [FA]2 D [DF][EG][GB] | [FA]6- | [FA]2 [DF] [DF][CE]D | [CE]6- | %17
w: ||||||
w: * on Cal- va- ry’s|brow,|* Will sa- tis- fy|all;|* oh, look to it|now!|
w: ||||||
 [CE]2 A A[^GB][=Gc] | [Fd]6- | [Fd]2 [Fd] [Bd][Ac][GB] | [FA]6- | [FA]2 [FA] [GB][FA][EG] | %22
w: |||||
w: * One look at the|cross,|* re- demp- tion will|give!|* Oh, look to it|
w: |||||
 [DF]6- | [DF]2 [DF] [DF]2 [DE] | D3- D2 |] %25
w: |||
w: now!|* with joy and|live! *|
w: |||
V:2
 x | x6 | x3 D2 x | x6 | x6 | x6 | x6 | x6 | D2 || AA x2 | x6 | x6 | x6 | x2 D x3 | x6 | x5 D | %16
 x6 | x2 A A x2 | x6 | x6 | x6 | x6 | x6 | x6 | D3- D2 |] %25
V:3
 [D,D] | [D,D][D,D][D,D] [D,A,]2 [D,A,] | [D,A,][D,B,][D,A,] [D,F,]2 [D,D] | %3
w: ~|~ ~ ~ ~ ~|~ ~ ~ ~ ~|
 [D,D][D,D][D,A,] [D,A,]2 [D,A,] | [G,B,][G,C][G,D] [D,D]2 [D,D] | %5
w: ~ ~ ~ ~ ~|~ ~ ~ ~ ~|
 [D,D][D,D][D,A,] [D,A,]2 [D,A,] | [G,B,][G,C][G,D] [D,D]2 [D,D] | %7
w: ~ ~ ~ ~ ~|~ ~ ~ ~ ~|
 [G,,D][G,,B,][G,,B,] [A,,A,]2 [A,,G,] | !fermata![D,F,]2 || z4 | z2 [D,A,] [D,A,][D,A,][D,A,] | %11
w: ~ ~ ~ ~ ~|~||One look at the|
 [D,A,]2 z4 | z2 [D,D] [D,D][D,D][D,D] | [D,D]2 z4 | z2 [D,D] [D,D][D,D][D,D] | [D,D]2 z4 | %16
w: cross|on Cal- va- ry’s|brow,|Will sa- tis- fy|all,|
 z2 [A,,A,] [A,,A,][C,A,][E,A,] | [A,,A,]2 z4 | z2 [D,A,] [D,A,][D,A,][D,A,] | [D,A,]2 z4 | %20
w: oh, look to it|now!|One look at the|cross|
 z2 [D,D] [D,D][D,D][D,D] | [D,D]2 z4 | z2 [A,,A,] [A,,A,][A,,A,][A,,A,] | %23
w: re- demp- tion will|give!|Oh, look to it|
 [A,,A,]2 [A,,A,] [A,,A,]2 [A,,G,] | [D,F,]3- [D,F,]2 |] %25
w: now, * * *||

